X: 1
T: Winster Gallop
R:polka
Z:id:hn-polka-17
M:2/4
L:1/8
K:F
|: "F"FA FA | FA c2 | "Gm"GA/B/ "C7"AG | "F"FA c2 \
| "Bb"Bd f>d | "F"cA c>A | "Gm"GA/B/ "C7"AG | "F"FA F2 :|
|: "F"fe dc | fe dc | "(Dm)"fe dc | "Gm"BA G2 \
| "C7"ed c2 | ed c2 | c2 G>B | "F"AF F2 :|
%%sep 1 1 10cm
